assets/img/mountain.svg

<svg 
 xmlns="http://www.w3.org/2000/svg"
 xmlns:xlink="http://www.w3.org/1999/xlink"
 width="50px" height="50px">
<path fill-rule="evenodd"  fill-opacity="0" fill="rgb(33, 130, 238)"
 d="M0.000,0.000 L50.000,0.000 L50.000,50.000 L0.000,50.000 L0.000,0.000 Z"/>
<path fill-rule="evenodd"  fill="rgb(0, 111, 235)"
 d="M48.826,49.418 C48.607,49.782 48.223,50.000 47.799,50.000 L1.200,50.000 C0.775,50.000 0.391,49.781 0.172,49.415 C-0.046,49.049 -0.057,48.606 0.144,48.230 L6.170,36.941 C6.171,36.940 6.171,36.938 6.172,36.937 L10.584,28.672 L13.207,23.758 C13.378,23.438 13.678,23.218 14.023,23.147 C14.035,23.145 14.047,23.143 14.059,23.141 C14.073,23.139 14.087,23.136 14.102,23.134 C14.118,23.132 14.134,23.130 14.150,23.129 C14.161,23.128 14.172,23.126 14.183,23.126 C14.195,23.125 14.207,23.125 14.219,23.124 C14.234,23.124 14.249,23.123 14.264,23.123 C14.265,23.123 14.266,23.123 14.267,23.123 C14.378,23.123 14.487,23.139 14.591,23.168 C14.902,23.256 15.168,23.468 15.324,23.764 L19.197,31.121 L20.499,28.681 C20.499,28.681 20.499,28.681 20.499,28.681 L22.893,24.197 L28.531,13.635 C28.741,13.243 29.145,13.000 29.588,13.000 L29.591,13.000 C30.035,13.001 30.440,13.247 30.647,13.641 L41.247,33.776 C41.432,34.127 41.298,34.562 40.948,34.748 C40.598,34.933 40.164,34.799 39.979,34.448 L38.679,31.978 L35.349,35.788 L35.347,35.791 C35.344,35.794 35.342,35.797 35.340,35.799 C35.112,36.060 34.784,36.209 34.439,36.209 C34.435,36.209 34.432,36.209 34.428,36.209 C34.080,36.206 33.750,36.051 33.524,35.784 L27.482,28.625 L24.374,32.116 C24.135,32.385 23.791,32.531 23.434,32.517 C23.075,32.502 22.745,32.330 22.527,32.044 L21.237,30.345 L20.004,32.655 C20.004,32.655 28.298,48.450 28.321,48.562 L47.410,48.562 L41.965,38.219 C41.780,37.867 41.914,37.432 42.264,37.247 C42.614,37.061 43.047,37.195 43.232,37.547 L48.859,48.236 C49.057,48.612 49.045,49.054 48.826,49.418 ZM27.487,27.063 C27.492,27.063 27.497,27.063 27.503,27.063 C27.850,27.068 28.177,27.223 28.401,27.489 L34.439,34.642 L37.919,30.535 L29.586,14.705 L22.198,28.546 L21.981,28.952 L23.495,30.945 L26.593,27.465 C26.821,27.209 27.146,27.063 27.487,27.063 ZM23.409,42.203 L21.482,43.986 C21.251,44.199 20.960,44.305 20.669,44.305 C20.364,44.305 20.059,44.188 19.825,43.955 L17.799,41.937 C17.518,41.658 17.516,41.202 17.795,40.920 C18.074,40.638 18.528,40.637 18.808,40.916 L20.675,42.775 L22.716,40.888 L14.262,24.828 L7.711,37.100 L9.858,38.905 L12.271,36.191 C12.488,35.946 12.801,35.799 13.128,35.789 C13.457,35.780 13.776,35.906 14.009,36.138 L15.730,37.852 C16.011,38.131 16.013,38.587 15.734,38.869 C15.455,39.151 15.002,39.153 14.721,38.873 L13.175,37.334 L10.775,40.033 C10.538,40.300 10.211,40.437 9.882,40.437 C9.610,40.437 9.337,40.344 9.112,40.154 L7.020,38.396 L1.593,48.561 L26.757,48.561 L23.409,42.203 Z"/>
</svg>

<svg id="Слой_1" data-name="Слой 1" xmlns="http://www.w3.org/2000/svg" viewBox="0 0 50 50"><defs><style>.cls-1{fill:#2182ee;fill-opacity:0;}.cls-2{fill:#11a2f6;}</style></defs><title>mountain</title><path class="cls-1" d="M0,0H50V50H0Z"/><path class="cls-2" d="M48.83,49.42a1.21,1.21,0,0,1-1,.58H1.2A1.2,1.2,0,0,1,.14,48.23l6-11.29h0l4.41-8.27,2.63-4.91a1.19,1.19,0,0,1,.81-.61h.25a1.13,1.13,0,0,1,.32.05,1.19,1.19,0,0,1,.73.59l3.88,7.36,1.3-2.44h0l2.39-4.48,5.64-10.56A1.19,1.19,0,0,1,29.59,13h0a1.21,1.21,0,0,1,1.06.64l10.6,20.14a.72.72,0,1,1-1.27.67L38.68,32l-3.33,3.81h0a1.21,1.21,0,0,1-.9.41h0a1.2,1.2,0,0,1-.91-.43l-6-7.16-3.11,3.5A1.18,1.18,0,0,1,22.53,32l-1.29-1.7L20,32.65s8.3,15.8,8.32,15.91H47.41L42,38.22a.71.71,0,1,1,1.26-.67l5.63,10.69A1.21,1.21,0,0,1,48.83,49.42ZM27.49,27.06h0a1.2,1.2,0,0,1,.9.43l6,7.15,3.48-4.11L29.59,14.7,22.2,28.55,22,29l1.52,2,3.09-3.47A1.21,1.21,0,0,1,27.49,27.06ZM23.41,42.2,21.48,44a1.2,1.2,0,0,1-.81.32,1.18,1.18,0,0,1-.84-.35l-2-2a.72.72,0,0,1,0-1,.71.71,0,0,1,1,0l1.86,1.86,2-1.89L14.26,24.83,7.71,37.1l2.15,1.8,2.41-2.71a1.22,1.22,0,0,1,.86-.4,1.2,1.2,0,0,1,.88.35l1.72,1.71a.72.72,0,0,1,0,1,.71.71,0,0,1-1,0l-1.54-1.54L10.77,40a1.17,1.17,0,0,1-.89.41,1.21,1.21,0,0,1-.77-.29L7,38.4,1.59,48.56H26.76Z"/></svg>
